X:56
T:Holly Schottische. GHW.039
M:4/4
L:1/8
Q:120
S:George H.Watson,MS,Swanton Abbott,Norfolk,1850-1880
R:Shottische
O:England
A:Norfolk
N:DC marked at end
Z:vmp.Taz Tarry
K:G
d>cB>c d2 g2|e>dc>d e4|d>ef>g a2 d2|e>d^c>d B4|!
d>cB>c d2 g2|e>dc>d e4|d>ef>g a>de>f|g2g2g2 z2:|!
K:D
|:f>ed>c d>f a2|g>fe>^d e3 z|c>BA>B c>d e3 z|f>ed>c B3 z|!
f>ed>c d>f a2|g>fe>^d e>f b3|a>gA>B c>df>e|d2d2d2 z2:|!
K:C
e4 c2 z2|e>fe>d c2 z2|d4 B2 z2|d>cB>d (a2g2)|!
e4 c2 z2|e>fe>d c2 z2|B>d g2 ^f>ac'>f| g2g2g2 z2|!
e4 c2 z2|e>fe>d c2 z2|d4 B2 z2|d>cB>d (a2g2)|!
e4 c2 z2|f>ed>^c d>f a2|g2 d>e f>ef>B|c2c2c2 "DC"z2||
